!!!!SEGMENT: pl-kk--kk-i-40--006-004_lasso-orlando-di--missa-ad-placitum-agnus-dei.krn
!!!cenid: 16xx:1300
!!!COM: Lasso, Orlando di
!!!COM-rismID: pe506
!!!CDT: ~1532-1594/06/14
!!!CNT: French-Flemish
!!!OPR: Missa ad Placitum
!!!OTL: Agnus Dei
!!!OMV: 004
!!!PDT:
!!!AGN: Sacred; Mass
!!!SMS-siglum: PL-Kk
!!!SMS-shelfmark: Kk.I.40
!!!SMS-shelfwork: 006-004 M
!!!SMS-variant:
!!!SMS-altvar:
!!!NIFC-rismSourceID: 1001154492
!!!NIFC-islandoraID: pl-kk:2717
!!!URL-pdf-islandora: https://repozytorium.nifc.pl/islandora/object/pl-kk%3A2717/datastream/PDF/view
!!!URL-scan: https://polish.musicsources.pl/pl/lokalizacje/galeria/rekopisy/6010 @EN{Scan on Polish Music Sources Website} @PL{Skany w portalu Dziedzictwo Muzyki Polskiej w otwartym dostępie}
!!!ONB-nifc: UWAGA: części Mszy: 1. Kyrie, 2. Et in terra, 3. Sanctus, 4. Agnus Dei. Skan 0009-0010
!!!AIN: 1 empty
!!!key:
**kern	**text
*Iempty	*
*I"Baſso Ripieno.	*
*clefF3	*
*k[b-]	*
*g:	*
*M2/1	*
*met(c|)	*
=1-	=1-
!LO:TX:a:t=P:problem=w  źródle znaki przykluczowe B- i BB-, zapisane jeden nad drugim	!
1.G	A-
*2\right	*
2G\	-gnus
=2-	=2-
1G	De-
2D,</	-i
*	*ij
1d\	A-
=3-	=3-
!LO:TX:t=P:problem=kreska pseudotaktowa	!
2c\	-gnus
(>2G\	De-
2B-\)	.
=4-	=4-
!LO:TX:t=P:problem=kreska pseudotaktowa	!
1A	-i
*	*Xij
2rB	.
2d\	Qui
=5-	=5-
2c\	tol-
!LO:TX:t=P:problem=kreska pseudotaktowa	!
2B-\	-lis
2A\	p(ec-
2B-\	-ca)-
=6-	=6-
2F,</	-ta
!LO:TX:t=P:problem=kreska pseudotaktowa	!
2G\	mun-
2D/	-di
4r	.
4G\	qui
=7-	=7-
2F/	tol-
2E/	-lis
2D/	pec-
!LO:TX:t=P:problem=kreska pseudotaktowa	!
2C/	.
=8-	=8-
2.G\	-ca-
4D/	-ta
(>2F\	mun-
2G\)	.
=9-	=9-
!LO:TX:t=P:problem=kreska pseudotaktowa	!
1D	-di
1r	.
=10-	=10-
2r	.
*	*ij
!LO:TX:t=P:problem=kreska pseudotaktowa	!
2d\	qui
2c\	tol-
2B-\	-lis
=11-	=11-
2A\	pec-
2B-\	-ca-
2F/	-ta
2C/	mun-
=12-	=12-
!LO:TX:t=P:problem=kreska pseudotaktowa	!
1D	-di
*	*Xij
!LO:LB:g=original	!
!LO:TX:t=P:problem=kreska pseudotaktowa	!
0r	.
=13-	=13-
1G	mi-
=14-	=14-
2E/	-ſe-
2G\	-re-
4F/	-re
4D/	.
!LO:TX:t=P:problem=kreska pseudotaktowa	!
2E/	.
=15-	=15-
4D/	no-
2G\	.
4F\	.
!LO:TX:t=P:problem=kreska pseudotaktowa	!
1G,<	-bis
=16-	=16-
0r	.
=17-	=17-
2r	.
2D/	mi-
2G\	-ſe-
!LO:TX:t=P:problem=kreska pseudotaktowa	!
2G\	-re-
=18-	=18-
(>4A\	-re-
4F\)	.
!LO:TX:t=P:problem=tekst - 3x re	!
2G\	-re
1D	no-
=19-	=19-
2G,>\	-bis
*	*ij
!LO:TX:t=P:problem=kreska pseudotaktowa	!
2D/	mi-
2G\	-ſe-
2G\	-re-
=20-	=20-
4A\	-re-
4F\	.
!LO:TX:t=P:problem=kreska pseudotaktowa	!
2G\	-re
1D	no-
=21-	=21-
!LO:TX:t=P:problem=podwójna kreska pseudotaktowa	!
0G;>	-bis
*	*Xij
=22||-	=22||-
*M2/1	*
*met(c|)	*
2.G\	A-
4G\	-gnus
*	*ij
2c\	A-
2B-\	-gnus
*	*Xij
=23-	=23-
2A\	De-
2F\	.
!LO:TX:t=P:problem=kreska pseudotaktowa	!
1G	-i
=24-	=24-
2G\	a-
2G\	-gn(us)
*	*ij
2c\	a-
!LO:TX:t=P:problem=kreska pseudotaktowa	!
2B-\	-gn(us)
*	*Xij
!LO:LB:g=original	!
=25-	=25-
2A\	De-
2F\	.
!LO:TX:t=P:problem=kreska pseudotaktowa	!
1G	-i
=26-	=26-
(<1.F	qui
2D/)	.
=27-	=27-
2A\	tol-
2F,<\	-lis
(>2G\	pec-
!LO:TX:t=P:problem=kreska pseudotaktowa	!
2A\)	.
=28-	=28-
2D/	-ca-
2G\	-ta
2D/	.
2E-X/	mun-
=29-	=29-
1D	.
0G	-di
=30-	=30-
1r	.
=31-	=31-
*M3/2	*
1F	mi-
!LO:TX:t=P:problem=kreska pseudotaktowa	!
2BB-/	-ſe-
=32-	=32-
1F	-re-
!LO:TX:t=P:problem=kreska pseudotaktowa	!
2B-\	-re
=33-	=33-
*	*ij
1A	mi-
2F\	-ſe-
=34-	=34-
1c	-re-
!LO:TX:t=P:problem=kreska pseudotaktowa	!
2d\	-re
*	*Xij
=35-	=35-
(>1B-	no-
2A\)	.
=36-	=36-
2F,</	-bis
2F/	mi-
!LO:TX:t=P:problem=kreska pseudotaktowa	!
2c\	-ſe-
=37-	=37-
1d	-re-
2A\	-re
=38-	=38-
1B-	.
!LO:TX:t=P:problem=kreska pseudotaktowa	!
2A\	.
=39-	=39-
1G	mi-
2D/	-ſe-
=40-	=40-
1G	-re-
*custos:F	*
!LO:TX:t=P:problem=kreska pseudotaktowa	!
2C/	-re
!LO:LB:g=original	!
=41-	=41-
*	*ij
1F	mi-
2G\	-ſe-
=42-	=42-
1D	-re-
!LO:TX:t=P:problem=kreska pseudotaktowa	!
2D/	-re
*	*Xij
=43-	=43-
1G	mi-
!LO:TX:t=P:problem=kreska pseudotaktowa	!
2F\	-se-
=44-	=44-
1B-	-re-
2G\	-re
=45-	=45-
1c	no-
!LO:TX:t=P:problem=kreska pseudotaktowa	!
2F/	.
=46-	=46-
2c,>\	-bis
1A	mi-
=47-	=47-
1G	.
!LO:TX:t=P:problem=kreska pseudotaktowa	!
2A\	-se-
=48-	=48-
1F	-re-
2F/	-re
=49-	=49-
2D/	no-
1A	.
=50-	=50-
!LO:TX:t=P:problem=podwójna kreska pseudotaktowa	!
0D;>	-bis.
!LO:TX:b:i:t=Agnus 3tium Ut Supra	!
=||	=||
*-	*-
!!!RDF**kern: > = above
!!!RDF**kern: < = below
!!!EED: Antoni Szymański
!!!EEV: 2021-07-31
!!!ENC: Tomasz Grochalski
!!!END: 2021-07-04
!!!YEC: Copyright 2022 Narodowy Instytut Fryderyka Chopina (https://polishscores.org)
!!!YEM: Licence CC BY 4.0 (https://creativecommons.org/licenses/by/4.0)
